X:595
T: KLOPFER KLOPFER RINGELCHEN
N: E1910
O: Europa, Mitteleuropa, Deutschland, Niederrhein
R: Kinder - Lied, Tanz, Reigen
M: 2/4
L: 1/8
K: F
 | FFGG | AGF
C | FFGG | AGFz
GGFA | GGF
C | FFGG | AGF
C | FFGG | A2Fz
FFGG | AGF2
FFGG | AGF2
GGF2 | GGF2
cFFF | FFF2

